data/styles/clear/style-clear/symbols/museum-m.svg

<?xml version="1.0" encoding="UTF-8"?>
<svg width="16px" height="16px" viewBox="0 0 16 16" version="1.1" xmlns="http://www.w3.org/2000/svg" xmlns:xlink="http://www.w3.org/1999/xlink">
    <title>museum-m</title>
    <g id="Page-1" stroke="none" stroke-width="1" fill="none" fill-rule="evenodd">
        <g id="museum-m" fill-rule="nonzero">
            <circle id="Oval" fill="#FFFFFF" opacity="0.6" cx="8" cy="8" r="8"></circle>
            <circle id="Oval" fill="#7F5933" cx="8" cy="8" r="7.33333333"></circle>
            <path d="M12.4333333,7.43066667 C12.564,7.43066667 12.6666667,7.328 12.6666667,7.19733333 L12.6666667,6.61866667 C12.6666667,6.544 12.6293333,6.46933333 12.5686667,6.42733333 L8.266,3.41733333 C8.10733333,3.30533333 7.89266667,3.30533333 7.72933333,3.41733333 L3.43133333,6.42733333 C3.37066667,6.46933333 3.33333333,6.544 3.33333333,6.61866667 L3.33333333,7.19733333 C3.33333333,7.328 3.436,7.43066667 3.56666667,7.43066667 L4.26666667,7.43066667 L4.26666667,11.6306667 L3.8,11.6306667 C3.54333333,11.6306667 3.33333333,11.8406667 3.33333333,12.0973333 C3.33333333,12.354 3.54333333,12.564 3.8,12.564 L12.2,12.564 C12.4566667,12.564 12.6666667,12.354 12.6666667,12.0973333 C12.6666667,11.8406667 12.4566667,11.6306667 12.2,11.6306667 L11.7333333,11.6306667 L11.7333333,7.43066667 L12.4333333,7.43066667 Z M9.86666667,10.2306667 C9.86666667,10.4873333 9.65666667,10.6973333 9.4,10.6973333 C9.14333333,10.6973333 8.93333333,10.4873333 8.93333333,10.2306667 L8.93333333,8.83066667 L8.38733333,9.64733333 C8.20066667,9.92266667 7.79466667,9.92266667 7.61266667,9.64733333 L7.06666667,8.83066667 L7.06666667,10.2306667 C7.06666667,10.4873333 6.85666667,10.6973333 6.6,10.6973333 C6.34333333,10.6973333 6.13333333,10.4873333 6.13333333,10.2306667 L6.13333333,8.03733333 C6.13333333,7.70133333 6.404,7.43066667 6.74,7.43066667 L6.74,7.43066667 C6.94066667,7.43066667 7.132,7.53333333 7.244,7.70133333 L8,8.83066667 L8.75133333,7.70133333 C8.868,7.53333333 9.05466667,7.43066667 9.26,7.43066667 L9.26,7.43066667 C9.596,7.43066667 9.86666667,7.70133333 9.86666667,8.03733333 L9.86666667,10.2306667 Z" id="Shape" fill="#FFFFFF"></path>
        </g>
    </g>
</svg>

<?xml version="1.0" encoding="UTF-8" standalone="no"?>
<svg
   xmlns:svg="http://www.w3.org/2000/svg"
   xmlns="http://www.w3.org/2000/svg"
   xmlns:sodipodi="http://sodipodi.sourceforge.net/DTD/sodipodi-0.dtd"
   xmlns:inkscape="http://www.inkscape.org/namespaces/inkscape"
   inkscape:version="1.1-dev (1:0.92.0+devel+202005110039+9ce7266)"
   sodipodi:docname="museum-m.svg"
   id="svg2086"
   version="1.1"
   viewBox="0 0 24 24"
   height="24"
   width="24">
  <defs
     id="defs2090" />
  <title
     id="title2078">museum-m</title>
  <g
     transform="scale(1.5)"
     fill-rule="evenodd"
     fill="none"
     stroke-width="1"
     stroke="none"
     id="Page-1">
    <g
       fill-rule="nonzero"
       id="museum-m">
      <circle
         r="8"
         cy="8"
         cx="8"
         opacity="0.6"
         fill="#ffffff"
         id="Oval" />
      <circle
         r="7.3333335"
         cy="8"
         cx="8"
         fill="#7f5933"
         id="circle2081" />
      <path
         fill="#ffffff"
         id="Shape"
         d="m 12.433333,7.4306667 c 0.130667,0 0.233334,-0.1026667 0.233334,-0.2333334 V 6.6186667 c 0,-0.074667 -0.03733,-0.1493334 -0.098,-0.1913334 l -4.302667,-3.01 c -0.1586667,-0.112 -0.3733333,-0.112 -0.5366667,0 l -4.298,3.01 c -0.060667,0.042 -0.098,0.1166667 -0.098,0.1913334 v 0.5786666 c 0,0.1306667 0.1026667,0.2333334 0.2333334,0.2333334 h 0.7 V 11.630667 H 3.8 c -0.2566667,0 -0.4666667,0.21 -0.4666667,0.466666 0,0.256667 0.21,0.466667 0.4666667,0.466667 h 8.4 c 0.256667,0 0.466667,-0.21 0.466667,-0.466667 0,-0.256666 -0.21,-0.466666 -0.466667,-0.466666 H 11.733333 V 7.4306667 Z M 9.8666667,10.230667 c 0,0.256666 -0.21,0.466666 -0.4666667,0.466666 -0.2566667,0 -0.4666667,-0.21 -0.4666667,-0.466666 V 8.8306667 l -0.546,0.8166666 c -0.1866666,0.2753334 -0.5926666,0.2753334 -0.7746666,0 l -0.546,-0.8166666 v 1.4000003 c 0,0.256666 -0.21,0.466666 -0.4666667,0.466666 -0.2566667,0 -0.4666667,-0.21 -0.4666667,-0.466666 V 8.0373333 c 0,-0.336 0.2706667,-0.6066666 0.6066667,-0.6066666 v 0 c 0.2006667,0 0.392,0.1026666 0.504,0.2706666 L 8,8.8306667 8.7513333,7.7013333 C 8.868,7.5333333 9.0546667,7.4306667 9.26,7.4306667 v 0 c 0.336,0 0.6066667,0.2706666 0.6066667,0.6066666 z" />
    </g>
  </g>
</svg>
